images/_social_media/facebook.svg

<svg xmlns="http://www.w3.org/2000/svg" xmlns:xlink="http://www.w3.org/1999/xlink" viewBox="0,0,256,256" width="48px" height="48px" fill-rule="nonzero"><defs><linearGradient x1="6.228" y1="4.896" x2="42.077" y2="43.432" gradientUnits="userSpaceOnUse" id="color-1"><stop offset="0" stop-color="#0d61a9"></stop><stop offset="1" stop-color="#16528c"></stop></linearGradient></defs><g transform="translate(-25.6,-25.6) scale(1.2,1.2)"><g fill="none" fill-rule="nonzero" stroke="none" stroke-width="1" stroke-linecap="butt" stroke-linejoin="miter" stroke-miterlimit="10" stroke-dasharray="" stroke-dashoffset="0" font-family="none" font-weight="none" font-size="none" text-anchor="none" style="mix-blend-mode: normal"><g transform="scale(5.33333,5.33333)"><path d="M42,40c0,1.105 -0.895,2 -2,2h-32c-1.105,0 -2,-0.895 -2,-2v-32c0,-1.105 0.895,-2 2,-2h32c1.105,0 2,0.895 2,2z" fill="url(#color-1)"></path><path d="M25,38v-11h-4v-6h4v-2.138c0,-5.042 2.666,-7.818 7.505,-7.818c1.995,0 3.077,0.14 3.598,0.208l0.858,0.111l0.039,0.861v4.776h-3.635c-1.128,0 -1.365,1.378 -1.365,2.535v1.465h4.723l-0.928,6h-3.795v11z" fill="#000000" opacity="0.05"></path><path d="M25.5,37.5v-11h-4v-5h4v-2.638c0,-4.788 2.422,-7.318 7.005,-7.318c1.971,0 3.03,0.138 3.54,0.204l0.436,0.057l0.02,0.442v4.253h-3.135c-1.623,0 -1.865,1.901 -1.865,3.035v1.965h4.64l-0.773,5h-3.868v11z" fill="#000000" opacity="0.07"></path><path d="M33.365,16h2.635v-3.754c-0.492,-0.064 -1.531,-0.203 -3.495,-0.203c-4.101,0 -6.505,2.08 -6.505,6.819v3.138h-4v4h4v11h5v-11h3.938l0.618,-4h-4.556v-2.465c0,-1.874 0.612,-3.535 2.365,-3.535z" fill="#ffffff"></path></g></g></g></svg>

<svg xmlns="http://www.w3.org/2000/svg"  viewBox="0 0 48 48" width="48px" height="48px"><linearGradient id="awSgIinfw5_FS5MLHI~A9a" x1="6.228" x2="42.077" y1="4.896" y2="43.432" gradientUnits="userSpaceOnUse"><stop offset="0" stop-color="#0d61a9"/><stop offset="1" stop-color="#16528c"/></linearGradient><path fill="url(#awSgIinfw5_FS5MLHI~A9a)" d="M42,40c0,1.105-0.895,2-2,2H8c-1.105,0-2-0.895-2-2V8c0-1.105,0.895-2,2-2h32	c1.105,0,2,0.895,2,2V40z"/><path d="M25,38V27h-4v-6h4v-2.138c0-5.042,2.666-7.818,7.505-7.818c1.995,0,3.077,0.14,3.598,0.208	l0.858,0.111L37,12.224L37,17h-3.635C32.237,17,32,18.378,32,19.535V21h4.723l-0.928,6H32v11H25z" opacity=".05"/><path d="M25.5,37.5v-11h-4v-5h4v-2.638c0-4.788,2.422-7.318,7.005-7.318c1.971,0,3.03,0.138,3.54,0.204	l0.436,0.057l0.02,0.442V16.5h-3.135c-1.623,0-1.865,1.901-1.865,3.035V21.5h4.64l-0.773,5H31.5v11H25.5z" opacity=".07"/><path fill="#fff" d="M33.365,16H36v-3.754c-0.492-0.064-1.531-0.203-3.495-0.203c-4.101,0-6.505,2.08-6.505,6.819V22h-4v4	h4v11h5V26h3.938l0.618-4H31v-2.465C31,17.661,31.612,16,33.365,16z"/></svg>
